X: 14
T: Seán Sa Cheo
Z: chansherly212
S: https://thesession.org/tunes/177#setting53704
R: reel
M: 4/4
L: 1/8
K: Amix
| a2c'~a a2 c'~a|a2c'a ~e3f|g2bg dgbg|gabg efge|
a2c'b abc'b|abc'a ~e3f|g2bg agfa|~g3f ed (3Bcd|
~e3e edcd| ~e3 c d2 (3cBA| B~e3 efge|dege d2 (3Bcd|
ed (3Bcd ed (3Bcd| edef d2 (3cBA|A ~e3 efge|dege dged|
c~A3 E~A3|c~A3 deed| c~A3 e~A3| egge dged|
c~A3 e~A3| cAcA deed| c~A3 e~A3| e2ge dgee|

%-------------------- TUNE SEPARATOR --------------------%

